X:1
M: 4/4 % Meter / Taktart
L: 1/8 % Standard Noten Länge
K: G % Tonart:
DE|"G"G2 G4Bd | "D"d2"Em"B4BA | "C"G2G4EG | 
w:Bur-den down, Lord, Bur-den down, Lord, since I lay my bur-den
"G"(E(DD4))DE |"G" G2G4Be | "D"e2"Em"B4ed | 
w:down.__ Bur-den down, Lord, bur-den down, Lord, since I 
"C7"B2 G4GE | "G"G6|]
w:lay my bur-den down.